X: 12
T: Jig Of Slurs, The
C: G.S. MacLennan
Z: PhilPontoise
S: https://thesession.org/tunes/35#setting50478
R: jig
M: 6/8
L: 1/8
K: Dmaj
|:~A3 gfg|age g2e|~A3 gfg|age ~g3|
~A3 gfg|age e2d|~B3 e2 g|fdd e3:|

